X: 31520
T: Paddy's Leather Breeches
R: jig
M: 6/8
K: Bminor
|:aga f2e|fBB f2e|aga f2e|cAA fec|
aga f2e|fBB f2 e|fga efa|cAA fec:|

